24x24/apps/easyeda.svg

<svg height="24" width="24" xmlns="http://www.w3.org/2000/svg"><rect height="20" opacity=".2" rx="6" width="20" x="2" y="2.5"/><rect fill="#5a8bff" height="20" rx="6" width="20" x="2" y="2"/><path d="m12.5 6.5c-1.623 0-3.058.794-3.973 2.002l-.017-.002h-.01a4.515 4.515 0 0 0 -4.5 4.5c0 1.555.813 2.917 2.023 3.725.119 1.54 1.409 2.775 2.977 2.775 1.645 0 3-1.355 3-3 0-.165-.023-.324-.049-.482l3.653-2.334-1.079-1.686-3.548 2.27a2.973 2.973 0 0 0 -1.977-.768c-.954 0-1.8.464-2.352 1.168a2.464 2.464 0 0 1 -.648-1.668 2.486 2.486 0 0 1 2.498-2.5h1.184a2.974 2.974 0 0 1 2.283-1.95c.173-.02.336-.05.535-.05 1.669 0 3 1.331 3 3h.701l.201.041a1.99 1.99 0 0 1 1.598 1.959 1.985 1.985 0 0 1 -1.998 2h-1.002a1 1 0 1 0 0 2h1.07a1 1 0 0 0 .272-.035c2.037-.178 3.658-1.885 3.658-3.965 0-1.718-1.13-3.18-2.72-3.73a8.03 8.03 0 0 0 -.55-.899c-.885-1.416-2.446-2.371-4.23-2.371zm-3.5 9c.564 0 1 .436 1 1s-.436 1-1 1-1-.436-1-1 .436-1 1-1z" opacity=".2"/><path d="m8 2c-3.324 0-6 2.676-6 6v.5c0-3.324 2.676-6 6-6h8c3.324 0 6 2.676 6 6v-.5c0-3.324-2.676-6-6-6z" fill="#f4f4f7" opacity=".2"/><path d="m12.5 6c-1.623 0-3.058.794-3.973 2.002l-.017-.002h-.01a4.515 4.515 0 0 0 -4.5 4.5c0 2.249 1.678 4.123 3.842 4.445v-2.04a2.477 2.477 0 0 1 -1.842-2.405 2.486 2.486 0 0 1 2.498-2.5h1.184a2.974 2.974 0 0 1 2.283-1.95c.173-.02.336-.05.535-.05 1.669 0 3 1.331 3 3h.701l.201.041a1.99 1.99 0 0 1 1.598 1.959 1.985 1.985 0 0 1 -1.998 2c-.054 0-.106.092-.16.088v1.894c.052.006.103.018.156.018h.002c2.197 0 4-1.803 4-4 0-1.718-1.13-3.18-2.72-3.73a8.03 8.03 0 0 0 -.55-.899c-.885-1.416-2.446-2.371-4.23-2.371z" fill="#f4f4f7"/><g fill="none" stroke="#f4f4f7"><circle cx="9" cy="16" r="2" stroke-width="1.999887"/><path d="m15.065 12.34-4.048 2.588" stroke-width="2"/><path d="m15 16h1.071" stroke-linecap="round" stroke-width="2"/></g></svg>

<svg height="24" width="24" xmlns="http://www.w3.org/2000/svg">
    <rect height="20" opacity=".2" rx="6" width="20" x="2" y="2.5"/>
    <rect fill="#5a8bff" height="20" rx="6" width="20" x="2" y="2"/>
    <path d="M12.5 6.5c-1.623 0-3.058.794-3.973 2.002L8.51 8.5H8.5A4.515 4.515 0 0 0 4 13c0 1.555.813 2.917 2.023 3.725C6.142 18.265 7.432 19.5 9 19.5c1.645 0 3-1.355 3-3a2.95 2.95 0 0 0-.049-.482l3.653-2.334-1.079-1.686-3.548 2.27A2.973 2.973 0 0 0 9 13.5c-.954 0-1.8.464-2.352 1.168A2.464 2.464 0 0 1 6 13a2.486 2.486 0 0 1 2.498-2.5h1.184a2.974 2.974 0 0 1 2.283-1.95c.173-.02.336-.05.535-.05 1.669 0 3 1.331 3 3h.701l.201.041A1.99 1.99 0 0 1 18 13.5a1.985 1.985 0 0 1-1.998 2H15a1 1 0 1 0 0 2h1.07a1 1 0 0 0 .272-.035C18.379 17.287 20 15.58 20 13.5c0-1.718-1.13-3.18-2.72-3.73a8.03 8.03 0 0 0-.55-.899C15.845 7.455 14.284 6.5 12.5 6.5zm-3.5 9c.564 0 1 .436 1 1s-.436 1-1 1-1-.436-1-1 .436-1 1-1z" opacity=".2"/>
    <path d="M8 2C4.676 2 2 4.676 2 8v.5c0-3.324 2.676-6 6-6h8c3.324 0 6 2.676 6 6V8c0-3.324-2.676-6-6-6z" fill="#f4f4f7" opacity=".2"/>
    <path d="M12.5 6c-1.623 0-3.058.794-3.973 2.002L8.51 8H8.5A4.515 4.515 0 0 0 4 12.5c0 2.249 1.678 4.123 3.842 4.445v-2.04A2.477 2.477 0 0 1 6 12.5 2.486 2.486 0 0 1 8.498 10h1.184a2.974 2.974 0 0 1 2.283-1.95c.173-.02.336-.05.535-.05 1.669 0 3 1.331 3 3h.701l.201.041A1.99 1.99 0 0 1 18 13a1.985 1.985 0 0 1-1.998 2c-.054 0-.106.092-.16.088v1.894c.052.006.103.018.156.018H16c2.197 0 4-1.803 4-4 0-1.718-1.13-3.18-2.72-3.73a8.03 8.03 0 0 0-.55-.899C15.845 6.955 14.284 6 12.5 6z" fill="#f4f4f7"/>
    <g fill="none" stroke="#f4f4f7" stroke-width="2">
        <circle cx="9" cy="16" r="2"/>
        <path d="m15.065 12.34-4.048 2.588"/>
        <path d="M15 16h1.071" stroke-linecap="round"/>
    </g>
</svg>
